storage/app/icons/tabler/filled/hourglass.svg

<!--
version: "2.4"
unicode: "f756"
-->
<svg
  xmlns="http://www.w3.org/2000/svg"
  width="24"
  height="24"
  viewBox="0 0 24 24"
  fill="currentColor"
>
  <path d="M17 2a2 2 0 0 1 1.995 1.85l.005 .15v2a6.996 6.996 0 0 1 -3.393 6a6.994 6.994 0 0 1 3.388 5.728l.005 .272v2a2 2 0 0 1 -1.85 1.995l-.15 .005h-10a2 2 0 0 1 -1.995 -1.85l-.005 -.15v-2a6.996 6.996 0 0 1 3.393 -6a6.994 6.994 0 0 1 -3.388 -5.728l-.005 -.272v-2a2 2 0 0 1 1.85 -1.995l.15 -.005h10z" />
</svg>

<svg xmlns="http://www.w3.org/2000/svg" width="24" height="24" fill="currentColor" viewBox="0 0 24 24"><path d="M17 2a2 2 0 0 1 1.995 1.85L19 4v2a7 7 0 0 1-3.393 6 7 7 0 0 1 3.388 5.728L19 18v2a2 2 0 0 1-1.85 1.995L17 22H7a2 2 0 0 1-1.995-1.85L5 20v-2a7 7 0 0 1 3.393-6 7 7 0 0 1-3.388-5.728L5 6V4a2 2 0 0 1 1.85-1.995L7 2z"/></svg>
